X:28
T:Untaken Path
C:Corwin Zekley
L:1/8
M:3/4
K:Emin
"Em" e3 G Be | g2 f3 e |"Bm" f2 d3 ^c | B6 |$"Em" e3 G Be | g3 f ga |"G" b4 b2 |"D" a3 g f2 |$ %8
"C" e3 G ce | g2 f3 e |"G" d3 e d2 |"F#dim" c3 B A2 |$"Em" B3 c B2 |"D" A3 G FE |"C#dim" _E3 =E3 | %15
 F3 G3 |$"C7" E3 _E =E_E | F3 E3 |"C#dim" _E3 =E3 | F3 G3 |"D" A3 F GA |"B7" B3 A GF |$ %22
"C7" E3 _E =E_E | F3 E3 |"C#dim" _E3 =E3 | F3 G3 |"D" A3 F GA |"Ebdim" B3 A GF |$"Em" G3 B e_e | %29
"G7" d3 B AG |"C7" F3 G F2 |"F7" A4 _B2 |"B7sus4" B6- |"B7" B6 |] %34

